img/cart-black.svg

<svg xmlns="http://www.w3.org/2000/svg" width="12" height="12"><path d="M11.864 3.017a.43.43 0 0 0-.327-.154H9.225V4.1c0 .563-.484 1.022-1.08 1.022S7.067 4.654 7.067 4.1V2.863H4.9V4.1c0 .563-.485 1.022-1.08 1.022S2.75 4.654 2.75 4.1V2.863H.438a.43.43 0 0 0-.327.154.47.47 0 0 0-.108.358L.78 10.5c.015.806.642 1.455 1.4 1.455h7.595c.77 0 1.396-.65 1.4-1.455l.776-7.134c.015-.13-.026-.26-.108-.358zM3.83 4.5c.24 0 .433-.184.433-.4V1.84c0-.632.672-1.022 1.295-1.022h1.08c.655 0 1.078.4 1.078 1.022V4.1c0 .225.194.4.43.4s.433-.184.433-.4V1.84C8.577.773 7.76 0 6.636 0h-1.08c-1.2 0-2.16.826-2.16 1.84V4.1c0 .225.194.4.43.4z"/></svg>

<?xml version="1.0" encoding="utf-8"?>
<!-- Generator: Adobe Illustrator 15.0.0, SVG Export Plug-In . SVG Version: 6.00 Build 0)  -->
<!DOCTYPE svg PUBLIC "-//W3C//DTD SVG 1.1//EN" "http://www.w3.org/Graphics/SVG/1.1/DTD/svg11.dtd">
<svg version="1.1" id="Layer_1" xmlns="http://www.w3.org/2000/svg" xmlns:xlink="http://www.w3.org/1999/xlink" x="0px" y="0px"
	 width="12px" height="12px" viewBox="0 0 12 12" enable-background="new 0 0 12 12" xml:space="preserve">
<g>
	<path d="M11.864,3.017c-0.082-0.098-0.203-0.154-0.327-0.154H9.225V4.09c0,0.563-0.484,1.022-1.08,1.022
		c-0.594,0-1.078-0.458-1.078-1.022V2.863H4.909V4.09c0,0.563-0.485,1.022-1.08,1.022c-0.595,0-1.078-0.458-1.078-1.022V2.863H0.438
		c-0.125,0-0.243,0.056-0.327,0.154C0.028,3.115-0.012,3.245,0.003,3.375l0.776,7.134c0.015,0.806,0.642,1.455,1.411,1.455h7.595
		c0.77,0,1.396-0.649,1.411-1.455l0.776-7.134C11.987,3.245,11.946,3.115,11.864,3.017z"/>
	<path d="M3.829,4.499c0.239,0,0.433-0.184,0.433-0.409V1.84c0-0.632,0.672-1.022,1.295-1.022h1.079
		c0.655,0,1.078,0.401,1.078,1.022v2.25c0,0.225,0.194,0.409,0.431,0.409c0.239,0,0.433-0.184,0.433-0.409V1.84
		C8.577,0.773,7.761,0,6.636,0H5.557C4.367,0,3.398,0.826,3.398,1.84v2.25C3.398,4.315,3.592,4.499,3.829,4.499z"/>
</g>
</svg>
